assets/img/braze_icons/chevron-left.svg

<svg fill="none" height="24" viewBox="0 0 24 24" width="24" xmlns="http://www.w3.org/2000/svg"><path clip-rule="evenodd" d="m15.7071 5.29289c.3905.39053.3905 1.02369 0 1.41422l-5.2929 5.29289 5.2929 5.2929c.3905.3905.3905 1.0237 0 1.4142s-1.0237.3905-1.4142 0l-6.00001-6c-.39052-.3905-.39052-1.0237 0-1.4142l6.00001-6.00001c.3905-.39052 1.0237-.39052 1.4142 0z" fill="#801ed7" fill-rule="evenodd"/></svg>

<svg width="24" height="24" viewBox="0 0 24 24" fill="none" xmlns="http://www.w3.org/2000/svg">
<path fill-rule="evenodd" clip-rule="evenodd" d="M15.7071 5.29289C16.0976 5.68342 16.0976 6.31658 15.7071 6.70711L10.4142 12L15.7071 17.2929C16.0976 17.6834 16.0976 18.3166 15.7071 18.7071C15.3166 19.0976 14.6834 19.0976 14.2929 18.7071L8.29289 12.7071C7.90237 12.3166 7.90237 11.6834 8.29289 11.2929L14.2929 5.29289C14.6834 4.90237 15.3166 4.90237 15.7071 5.29289Z" fill="#801ED7"/>
</svg>
